X: 32159
T: Peter Ross HIBBARD
R: reel
M: 4/4
K: Aminor
|:EAcA EA A2|EAcA e3d|GABG DG G2|eGdG edcB|
ABcA EA A2|EAcA e3d|eA A2 BG G2|egdB cA A2:|
|:cA A2 EA A2|ABcd e3d|BG G2 dG G2|Bcde d2 ed|
eA A2 EA A2|ABcd e3d|eA A2 BG G2|ecdB cA A2:|

